static/characters/chotto_toorimasu_yo/back-walking-1.svg

<svg height="182" width="160" xmlns="http://www.w3.org/2000/svg" xml:space="preserve" style="fill-rule:evenodd;clip-rule:evenodd;stroke-linejoin:round;stroke-miterlimit:1.5"><path d="M54.321 139.135c-1.404-2.12-.926-21.705 2.239-27.232 2.454-12.583 13.629-42.161 14.583-43.946 7.423-13.893 22.743-12.165 31.746-7.333 2.912 1.563 17.675 14.224 16.748 24.207-.876 9.423-11.807 28.04-12.703 28.113-1.416.114.307 5.375 3.596 2.763 2.845-2.258 8.919-1.239 8.804 3.791-.101 4.455-11.656 6.416-11.656 6.416s-41.971 8.412-42.881 7.891c-2.269-1.301-2.819 2.767-2.701 3.526.611 3.944-5.926 4.594-7.775 1.804Z" style="fill:#fff"/><path d="M66.35 79.808c.71-1.167 3.403-7.743 4.068-8.808 18.76-30.05 56.915 5.555 51.283 22.727-.262.798-6.918 16.124-12.497 21.399a7.677 7.677 0 0 0-1.324 1.612c-.938 1.571-.872 3.172 1.093 3.984" style="fill:none;stroke:#000;stroke-width:2.64px" transform="matrix(.94397 -.09033 .0389 .99924 .586 5.663)"/><path d="M54.103 130.916c.136 4.569.075 6.088 1.294 7.91m0 0c2.914 4.355 8.198 1.864 8.233-1.698" style="fill:none;stroke:#000;stroke-width:2.65px" transform="matrix(-.256 -.90572 .90918 -.25698 4.925 208.05)"/><path d="m63.896 135.785 35.088-.122" style="fill:none;stroke:#000;stroke-width:2.22px" transform="matrix(-1.21905 .2177 .17852 .98395 160.572 -21.42)"/><path d="M108.398 124.89c.043 4.275.29 10.197 0 12.238-.782 5.509-7.633 4.766-7.635-1.256" style="fill:none;stroke:#000;stroke-width:2.36px" transform="matrix(-1.09441 -.05309 -.04958 1.0221 178.706 2.372)"/><path d="m57.906 102.425-4.663 16.65h2.592l4.662-16.676-2.591.026Zm1.202-4.165 5.283-16.65 2.59-.026-5.282 16.65z"/></svg>

<?xml version="1.0" encoding="UTF-8" standalone="no"?>
<!DOCTYPE svg PUBLIC "-//W3C//DTD SVG 1.1//EN" "http://www.w3.org/Graphics/SVG/1.1/DTD/svg11.dtd">
<svg height="182" width="160" viewBox="0 0 160 182" version="1.1" xmlns="http://www.w3.org/2000/svg" xmlns:xlink="http://www.w3.org/1999/xlink" xml:space="preserve" xmlns:serif="http://www.serif.com/" style="fill-rule:evenodd;clip-rule:evenodd;stroke-linejoin:round;stroke-miterlimit:1.5;">
    <g>
        <path d="M54.321,139.135C52.917,137.015 53.395,117.43 56.56,111.903C59.014,99.32 70.189,69.742 71.143,67.957C78.566,54.064 93.886,55.792 102.889,60.624C105.801,62.187 120.564,74.848 119.637,84.831C118.761,94.254 107.83,112.871 106.934,112.944C105.518,113.058 107.241,118.319 110.53,115.707C113.375,113.449 119.449,114.468 119.334,119.498C119.233,123.953 107.678,125.914 107.678,125.914C107.678,125.914 65.707,134.326 64.797,133.805C62.528,132.504 61.978,136.572 62.096,137.331C62.707,141.275 56.17,141.925 54.321,139.135Z" style="fill:white;"/>
        <g transform="matrix(0.943974,-0.0903305,0.0388981,0.999243,0.585527,5.66312)">
            <path d="M66.35,79.808C67.06,78.641 69.753,72.065 70.418,71C89.178,40.95 127.333,76.555 121.701,93.727C121.439,94.525 114.783,109.851 109.204,115.126C108.664,115.636 108.21,116.185 107.88,116.738C106.942,118.309 107.008,119.91 108.973,120.722" style="fill:none;stroke:black;stroke-width:2.64px;"/>
        </g>
        <g transform="matrix(-0.256003,-0.905722,0.909178,-0.25698,4.92511,208.05)">
            <path d="M54.103,130.916C54.239,135.485 54.178,137.004 55.397,138.826" style="fill:none;stroke:black;stroke-width:2.65px;"/>
        </g>
        <g transform="matrix(-0.256003,-0.905722,0.909178,-0.25698,4.92511,208.05)">
            <path d="M55.397,138.826C58.311,143.181 63.595,140.69 63.63,137.128" style="fill:none;stroke:black;stroke-width:2.65px;"/>
        </g>
        <g transform="matrix(-1.21905,0.217704,0.178523,0.983947,160.572,-21.4205)">
            <path d="M63.896,135.785L98.984,135.663" style="fill:none;stroke:black;stroke-width:2.22px;"/>
        </g>
        <g transform="matrix(-1.09441,-0.0530875,-0.0495796,1.0221,178.706,2.37154)">
            <path d="M108.398,124.89C108.441,129.165 108.688,135.087 108.398,137.128C107.616,142.637 100.765,141.894 100.763,135.872" style="fill:none;stroke:black;stroke-width:2.36px;"/>
        </g>
        <g transform="matrix(0.302405,-0.953179,1.12606,-0.0112691,-47.0263,138.591)">
            <path d="M36.958,83.26L19.484,83.812L19.456,86.121L36.958,85.561L36.958,83.26Z"/>
        </g>
        <g transform="matrix(0.302405,-0.953179,1.12606,-0.0112691,-40.5412,117.776)">
            <rect x="19.49" y="83.26" width="17.468" height="2.301"/>
        </g>
    </g>
</svg>
